svgs/light/bath.svg

<svg xmlns="http://www.w3.org/2000/svg" viewBox="0 0 512 512"><!-- Font Awesome Pro 6.0.0-alpha2 by @fontawesome - https://fontawesome.com License - https://fontawesome.com/license (Commercial License) --><path d="M464 320C455.156 320 448 327.156 448 336V368C448 412.109 412.109 448 368 448H144C99.891 448 64 412.109 64 368V336C64 327.156 56.844 320 48 320S32 327.156 32 336V368C32 398.398 44.268 425.934 64 446.135V496C64 504.836 71.164 512 80 512C88.838 512 96 504.836 96 496V468.766C110.605 475.758 126.758 480 144 480H368C385.242 480 401.395 475.758 416 468.766V496C416 504.836 423.164 512 432 512C440.838 512 448 504.836 448 496V446.135C467.732 425.934 480 398.398 480 368V336C480 327.156 472.844 320 464 320ZM496 256H64V61.25C64 45.125 77.125 32 93.25 32C100.953 32 108.5 35.125 113.938 40.562L139.254 65.879C121.584 93.877 124.826 131.295 149.221 155.689L162.105 168.574C158.877 174.625 159.584 182.209 164.688 187.312C167.812 190.438 171.906 192 176 192S184.188 190.438 187.312 187.312L283.312 91.312C289.562 85.062 289.562 74.937 283.312 68.688C278.209 63.584 270.625 62.877 264.574 66.105L251.689 53.221C237.541 39.074 218.998 32 200.455 32C187.023 32 173.641 35.834 161.881 43.256L136.562 17.938C125 6.375 109.609 0 93.25 0C59.484 0 32 27.469 32 61.25V256H16C7.164 256 0 263.164 0 272S7.164 288 16 288H496C504.838 288 512 280.836 512 272S504.838 256 496 256ZM171.85 75.85C179.49 68.207 189.648 64 200.455 64S221.42 68.207 229.061 75.85L241.293 88.082L184.082 145.293L171.85 133.061C156.076 117.287 156.076 91.623 171.85 75.85Z"/></svg>

<svg xmlns="http://www.w3.org/2000/svg" viewBox="0 0 512 512"><!--! Font Awesome Pro 6.0.0-alpha3 by @fontawesome - https://fontawesome.com License - https://fontawesome.com/license (Commercial License) --><path d="M464 320c-8.844 0-16 7.156-16 16v32c0 44.11-35.89 80-80 80h-224C99.89 448 64 412.1 64 368v-32C64 327.2 56.84 320 48 320S32 327.2 32 336v32c0 30.4 12.27 57.93 32 78.13V496C64 504.8 71.16 512 80 512C88.84 512 96 504.8 96 496v-27.23C110.6 475.8 126.8 480 144 480h224c17.24 0 33.39-4.242 48-11.23V496c0 8.836 7.164 16 16 16c8.838 0 16-7.164 16-16v-49.87c19.73-20.2 32-47.74 32-78.13v-32C480 327.2 472.8 320 464 320zM496 256H64V61.25C64 45.13 77.13 32 93.25 32C100.1 32 108.5 35.13 113.9 40.56l25.32 25.32C121.6 93.88 124.8 131.3 149.2 155.7l12.88 12.88C158.9 174.6 159.6 182.2 164.7 187.3C167.8 190.4 171.9 192 176 192s8.188-1.562 11.31-4.688l96-96c6.25-6.25 6.25-16.38 0-22.62c-5.104-5.104-12.69-5.811-18.74-2.582L251.7 53.22C237.5 39.07 218.1 32 200.5 32C187 32 173.6 35.83 161.9 43.26L136.6 17.94C125 6.375 109.6 0 93.25 0C59.48 0 32 27.47 32 61.25v194.8L16 256C7.164 256 0 263.2 0 272S7.164 288 16 288h480C504.8 288 512 280.8 512 272S504.8 256 496 256zM171.8 75.85C179.5 68.21 189.6 64 200.5 64s20.96 4.207 28.61 11.85l12.23 12.23L184.1 145.3L171.8 133.1C156.1 117.3 156.1 91.62 171.8 75.85z"/></svg>
